public/avatar/item1/63.svg

<svg xmlns:xlink="http://www.w3.org/1999/xlink" height="65.4" width="80.15" xmlns="http://www.w3.org/2000/svg"><use height="31.3" transform="translate(8.3 32.6)" width="40.9" xlink:href="#a"/><defs><g id="a" fill-rule="evenodd"><path d="M17.4 22.6q-7.45 6.05-13.7 8.85-6.25 2.75-13.25 5.1-5.35 12.65-5.55 12.7l-.95.15q-.15.6-.45.7l-1.35-.05-1.15-.35-.1-.9-1-.6-.5.45q-2-.65-2-1.7l.35-1.15q-1.25-.65-1-3.1l.7-8.35q0-.75 1.15-1.9l1.95-2.35q1.25-1.4 1.6-1.4l.6.6.4 1q-.1 1.45.5 1.55.25.05 1.35 1.45 5.25-1.55 14.4-4.9 7.45-2.7 15.85-9.6l1.1.35q.45 1.75 1.05 2.1l.2.7-.2.65" fill="#000202" transform="translate(23.3 -18.8)"/><path d="m-21.5 45.55 1.35 1.8q-.1.75-.35.8-.45.2-1.5-1-.6-.5.5-1.6m2.9 2.7 2.5.4q-.4 1.15-.75 1.2-1.25.2-1.85-.45l.1-1.15" fill="#7f5903" transform="translate(23.3 -18.8)"/><path d="m-21.75 47.35.8-.45.8.8q-.1.65-.55.45l-1.05-.8m5.55 1.7q-.3.75-.65.8l-1.25-.2q1.1-.4.6-.75l1.3.15" fill="#634302" transform="translate(23.3 -18.8)"/><path d="m-21.55 45.95.45.65-.3.3q-.3.3-.55-.2-.1-.4.4-.75m3 2.6.65.25-.25.4q-.25.15-.5-.2l.1-.45" fill="#aa760e" transform="translate(23.3 -18.8)"/><path d="M11.5 25.95Q9 28.2 4.6 30.15q-7.3 3.25-15.15 5.7-.5.45-5.3-1.1l1.15-.95Q-4.3 30.85.65 28.6q4.95-2.25 14.75-9.1.6-.6.95.4l.7 1.85q-.75 1.5-3.3 2.2l-2.25 2" fill="#4dd6d6" transform="translate(23.3 -18.8)"/><path d="m15.8 20.15.25.85q-10.4 6.8-13.3 8.15-2.95 1.3-15.45 5.45l-1.65-.25q13-4.45 16.55-6.1 3.55-1.6 13.6-8.1" fill="#40bcb8" transform="translate(23.3 -18.8)"/><path d="M16.8 21.95Q10.3 27.9 4.7 30.5q-5.65 2.55-14.8 5-.35.15-1.55-.6 10.45-2.7 15.8-5.15 5.4-2.45 12.3-8.3l.35.5" fill="#40bcb8" transform="translate(23.3 -18.8)"/><path d="M-21.75 45.8q-.3-.5.3-2.2l4.1-8.95q.45-.85 1.35-.6l2.8.4q2.5.35 2.8.8.5.65.4 1Q-15.25 48.9-15.6 49q-3.85.8-6.15-3.2" fill="#07c5d8" transform="translate(23.3 -18.8)"/><path d="m-22.6 41.55.4-5.25q.15-2.3.6-2.8l1.85-2.6q1.4-1.85 2.15-1.5.7.35.55.6l.55 2q.45.05 1.5 1.8.35-.15-6.65 11.45-1.45.4-.95-3.7m11.5-6.4q.65.2.8 1-5 12.55-5.4 12.6-5 .25-5.5-3.6l4.75.8q.35 0 5.35-10.8" fill="#057f7f" transform="translate(23.3 -18.8)"/><path d="M-21.4 44.6q-.55-11.6 1.65-12.85 1.35-.8 2.8 1.25.75 1 1.2 2.15l-1.85 2.95-.65-2.5q-.7-2.5-1-2.3l-.75 8.75-1.4 2.55" fill="#bf2806" transform="translate(23.3 -18.8)"/><path d="M-21.3 44.85-15 34.3q1.15-.3 2.85.45l-2.6.2q-4.65 10.35-6.55 9.9" fill="#3fe7ef" transform="translate(23.3 -18.8)"/><path d="M-21.15 35.65q-.15-.3.3-2 .55-1.95 1.45-2.15.9-.2 2.05 1.05l.95 1.3-1.8 1.7-1.05-2.25-.45 2.5-1.45-.15" fill="#ef4529" transform="translate(23.3 -18.8)"/><path d="M-21.05 34.6q.5-2.6 1.65-3.1.6-.25 1.4.35l.65.65-1.45 1.55-.45-.75-.25.9-1.55.4" fill="#f77b6b" transform="translate(23.3 -18.8)"/><path d="m-19.5 31.05 1.65-1.35q.25.1.65 1.8l-.7-.4-1.6-.05" fill="#07c5d8" transform="translate(23.3 -18.8)"/><path d="M-18.7 30.4q.05-.25.5-.4h.35q.15.15.15.35l-.65.3q-.5.2-.4-.25h.05" fill="#49eaf2" transform="translate(23.3 -18.8)"/><path d="M-14.4 35.05q.5-.5 1.25 0l-4.1 5.45 2.85-5.45" fill="#3fe7ef" transform="translate(23.3 -18.8)"/><path d="m-13.75 34.15-.55-.1-.25-.25L-.3 29.3l-13.45 4.85m26.8-13.3 2.8-1.35q.4.55-2.8 1.35M13.7 23l3.05-1.5q.3.45-3.05 1.5m-25.95 11.55L-1.4 31.3l-9.45 3.6-1.4-.35m1.95.8 5.95-2.05-5.5 2.7-.45-.65" fill="#b0f7f3" transform="translate(23.3 -18.8)"/></g></defs></svg>

<?xml version="1.0" encoding="UTF-8" standalone="no"?>
<svg xmlns:xlink="http://www.w3.org/1999/xlink" height="65.4px" width="80.15px" xmlns="http://www.w3.org/2000/svg">
  <g transform="matrix(1.0, 0.0, 0.0, 1.0, 31.6, 13.8)">
    <use height="31.3" transform="matrix(1.0, 0.0, 0.0, 1.0, -23.3, 18.8)" width="40.9" xlink:href="#shape0"/>
  </g>
  <defs>
    <g id="shape0" transform="matrix(1.0, 0.0, 0.0, 1.0, 23.3, -18.8)">
      <path d="M17.4 22.6 Q9.95 28.65 3.7 31.45 -2.55 34.2 -9.55 36.55 -14.9 49.2 -15.1 49.25 L-16.05 49.4 Q-16.2 50.0 -16.5 50.1 L-17.85 50.05 -19.0 49.7 -19.1 48.8 -20.1 48.2 -20.6 48.65 Q-22.6 48.0 -22.6 46.95 L-22.25 45.8 Q-23.5 45.15 -23.25 42.7 L-22.55 34.35 Q-22.55 33.6 -21.4 32.45 L-19.45 30.1 Q-18.2 28.7 -17.85 28.7 L-17.25 29.3 -16.85 30.3 Q-16.95 31.75 -16.35 31.85 -16.1 31.9 -15.0 33.3 -9.75 31.75 -0.6 28.4 6.85 25.7 15.25 18.8 L16.35 19.15 Q16.8 20.9 17.4 21.25 L17.6 21.95 17.4 22.6" fill="#000202" fill-rule="evenodd" stroke="none"/>
      <path d="M-21.5 45.55 L-20.15 47.35 Q-20.25 48.1 -20.5 48.15 -20.95 48.35 -22.0 47.15 -22.6 46.65 -21.5 45.55" fill="#7f5903" fill-rule="evenodd" stroke="none"/>
      <path d="M-18.6 48.25 L-16.1 48.65 Q-16.5 49.8 -16.85 49.85 -18.1 50.05 -18.7 49.4 L-18.6 48.25" fill="#7f5903" fill-rule="evenodd" stroke="none"/>
      <path d="M-21.75 47.35 L-20.95 46.9 -20.15 47.7 Q-20.25 48.35 -20.7 48.15 L-21.75 47.35" fill="#634302" fill-rule="evenodd" stroke="none"/>
      <path d="M-16.2 49.05 Q-16.5 49.8 -16.85 49.85 L-18.1 49.65 Q-17.0 49.25 -17.5 48.9 L-16.2 49.05" fill="#634302" fill-rule="evenodd" stroke="none"/>
      <path d="M-21.55 45.95 L-21.1 46.6 -21.4 46.9 Q-21.7 47.2 -21.95 46.7 -22.05 46.3 -21.55 45.95" fill="#aa760e" fill-rule="evenodd" stroke="none"/>
      <path d="M-18.55 48.55 L-17.9 48.8 -18.15 49.2 Q-18.4 49.35 -18.65 49.0 L-18.55 48.55" fill="#aa760e" fill-rule="evenodd" stroke="none"/>
      <path d="M11.5 25.95 Q9.0 28.2 4.6 30.15 -2.7 33.4 -10.55 35.85 -11.05 36.3 -15.85 34.75 L-14.7 33.8 Q-4.3 30.85 0.65 28.6 5.6 26.35 15.4 19.5 16.0 18.9 16.35 19.9 L17.05 21.75 Q16.3 23.25 13.75 23.95 L11.5 25.95" fill="#4dd6d6" fill-rule="evenodd" stroke="none"/>
      <path d="M15.8 20.15 L16.05 21.0 Q5.65 27.8 2.75 29.15 -0.2 30.45 -12.7 34.6 L-14.35 34.35 Q-1.35 29.9 2.2 28.25 5.75 26.65 15.8 20.15" fill="#40bcb8" fill-rule="evenodd" stroke="none"/>
      <path d="M16.8 21.95 Q10.3 27.9 4.7 30.5 -0.95 33.05 -10.1 35.5 -10.45 35.65 -11.65 34.9 -1.2 32.2 4.15 29.75 9.55 27.3 16.45 21.45 L16.8 21.95" fill="#40bcb8" fill-rule="evenodd" stroke="none"/>
      <path d="M-21.75 45.8 Q-22.05 45.3 -21.45 43.6 L-17.35 34.65 Q-16.9 33.8 -16.0 34.05 L-13.2 34.45 Q-10.7 34.8 -10.4 35.25 -9.9 35.9 -10.0 36.25 -15.25 48.9 -15.6 49.0 -19.45 49.8 -21.75 45.8" fill="#07c5d8" fill-rule="evenodd" stroke="none"/>
      <path d="M-22.6 41.55 L-22.2 36.3 Q-22.05 34.0 -21.6 33.5 L-19.75 30.9 Q-18.35 29.05 -17.6 29.4 -16.9 29.75 -17.05 30.0 L-16.5 32.0 Q-16.05 32.05 -15.0 33.8 -14.65 33.65 -21.65 45.25 -23.1 45.65 -22.6 41.55" fill="#057f7f" fill-rule="evenodd" stroke="none"/>
      <path d="M-11.1 35.15 Q-10.45 35.35 -10.3 36.15 -15.3 48.7 -15.7 48.75 -20.7 49.0 -21.2 45.15 L-16.45 45.95 Q-16.1 45.95 -11.1 35.15" fill="#057f7f" fill-rule="evenodd" stroke="none"/>
      <path d="M-21.4 44.6 Q-21.95 33.0 -19.75 31.75 -18.4 30.95 -16.95 33.0 -16.2 34.0 -15.75 35.15 L-17.6 38.1 -18.25 35.6 Q-18.95 33.1 -19.25 33.3 L-20.0 42.05 -21.4 44.6" fill="#bf2806" fill-rule="evenodd" stroke="none"/>
      <path d="M-21.3 44.85 L-15.0 34.3 Q-13.85 34.0 -12.15 34.75 L-14.75 34.95 Q-19.4 45.3 -21.3 44.85" fill="#3fe7ef" fill-rule="evenodd" stroke="none"/>
      <path d="M-21.15 35.65 Q-21.3 35.35 -20.85 33.65 -20.3 31.7 -19.4 31.5 -18.5 31.3 -17.35 32.55 L-16.4 33.85 -18.2 35.55 -19.25 33.3 -19.7 35.8 -21.15 35.65" fill="#ef4529" fill-rule="evenodd" stroke="none"/>
      <path d="M-21.05 34.6 Q-20.55 32.0 -19.4 31.5 -18.8 31.25 -18.0 31.85 L-17.35 32.5 -18.8 34.05 -19.25 33.3 -19.5 34.2 -21.05 34.6" fill="#f77b6b" fill-rule="evenodd" stroke="none"/>
      <path d="M-19.5 31.05 L-17.85 29.7 Q-17.6 29.8 -17.2 31.5 L-17.9 31.1 -19.5 31.05" fill="#07c5d8" fill-rule="evenodd" stroke="none"/>
      <path d="M-18.7 30.4 Q-18.65 30.15 -18.2 30.0 L-17.85 30.0 Q-17.7 30.15 -17.7 30.35 L-18.35 30.65 Q-18.85 30.85 -18.75 30.4 L-18.7 30.4" fill="#49eaf2" fill-rule="evenodd" stroke="none"/>
      <path d="M-14.4 35.05 Q-13.9 34.55 -13.15 35.05 L-17.25 40.5 -14.4 35.05" fill="#3fe7ef" fill-rule="evenodd" stroke="none"/>
      <path d="M-13.75 34.15 L-14.3 34.05 -14.55 33.8 -0.3 29.3 -13.75 34.15" fill="#b0f7f3" fill-rule="evenodd" stroke="none"/>
      <path d="M13.05 20.85 L15.85 19.5 Q16.25 20.05 13.05 20.85" fill="#b0f7f3" fill-rule="evenodd" stroke="none"/>
      <path d="M13.7 23.0 L16.75 21.5 Q17.05 21.95 13.7 23.0" fill="#b0f7f3" fill-rule="evenodd" stroke="none"/>
      <path d="M-12.25 34.55 L-1.4 31.3 -10.85 34.9 -12.25 34.55" fill="#b0f7f3" fill-rule="evenodd" stroke="none"/>
      <path d="M-10.3 35.35 L-4.35 33.3 -9.85 36.0 -10.3 35.35" fill="#b0f7f3" fill-rule="evenodd" stroke="none"/>
    </g>
  </defs>
</svg>
